lib/flags/s/BN.svg

<svg xmlns="http://www.w3.org/2000/svg" fill="none" viewBox="0 0 16 12"><mask id="BN_svg__a" width="16" height="12" x="0" y="0" mask-type="alpha" maskUnits="userSpaceOnUse"><path fill="#fff" d="M0 0H16V12H0z"/></mask><g mask="url(#BN_svg__a)"><path fill="#FFD221" fill-rule="evenodd" d="M0 0V12H16V0H0Z" clip-rule="evenodd"/><mask id="BN_svg__b" width="16" height="12" x="0" y="0" mask-type="alpha" maskUnits="userSpaceOnUse"><path fill="#fff" fill-rule="evenodd" d="M0 0V12H16V0H0Z" clip-rule="evenodd"/></mask><g mask="url(#BN_svg__b)"><path fill="#313131" d="M-1.53351 5.30761L-0.529513 3.01807L16.8838 10.6541L15.8798 12.9436L-1.53351 5.30761Z"/><path fill="#FAF9F9" d="M-1.50861 2.78472L-0.505032 0.494995L17.7743 8.50671L16.7707 10.7964L-1.50861 2.78472Z"/><path fill="#CF1225" fill-rule="evenodd" d="M8.00003 1.44373C7.72388 1.44373 7.50003 1.66758 7.50003 1.94373V3.75806C7.32953 3.67477 7.10889 3.60006 6.86596 3.60006C6.31712 3.60006 5.70003 4.36803 5.70003 4.36803C5.70003 4.36803 6.71968 4.39576 7.50003 5.16995V7.94362C6.63697 7.71544 6.26627 6.8367 6.36367 5.04067L4.86587 4.95944C4.70949 7.84303 5.77451 9.50517 8.02088 9.50517C10.2557 9.50517 11.3576 7.85816 11.2831 4.98063L9.78357 5.01948C9.8311 6.85356 9.41256 7.74323 8.50003 7.95467V5.07585C9.26463 4.39347 10.2 4.36803 10.2 4.36803C10.2 4.36803 9.58293 3.60006 9.03409 3.60006C8.83628 3.60006 8.65324 3.6496 8.50003 3.71297V1.94373C8.50003 1.66758 8.27617 1.44373 8.00003 1.44373ZM2.91004 5.49189C2.6384 5.44219 2.45849 5.1817 2.50819 4.91006C2.55789 4.63843 2.81838 4.45852 3.09002 4.50822C4.08899 4.691 4.63205 5.38597 4.63205 6.44872V8.47407C4.63205 8.75021 4.40819 8.97407 4.13205 8.97407C3.85591 8.97407 3.63205 8.75021 3.63205 8.47407V6.44872C3.63205 5.85609 3.42043 5.58528 2.91004 5.49189ZM13.5238 4.91006C13.5735 5.1817 13.3936 5.44219 13.122 5.49189C12.6116 5.58528 12.3999 5.85609 12.3999 6.44872V8.47407C12.3999 8.75021 12.1761 8.97407 11.8999 8.97407C11.6238 8.97407 11.3999 8.75021 11.3999 8.47407V6.44872C11.3999 5.38597 11.943 4.691 12.942 4.50822C13.2136 4.45852 13.4741 4.63843 13.5238 4.91006ZM4.87063 9.2198L5.69704 8.65673C6.16004 9.33628 6.90796 9.67751 8.00003 9.67751C9.09923 9.67751 9.79285 9.41185 10.1332 8.91885L10.9561 9.48694C10.3994 10.2934 9.39662 10.6775 8.00003 10.6775C6.59629 10.6775 5.53342 10.1926 4.87063 9.2198Z" clip-rule="evenodd"/></g></g></svg>

<svg xmlns="http://www.w3.org/2000/svg" fill="none" viewBox="0 0 16 12"><mask id="BN_svg__a" width="16" height="12" x="0" y="0" maskUnits="userSpaceOnUse"><path fill="#fff" d="M0 0h16v12H0z"/></mask><g mask="url(#BN_svg__a)"><path fill="#FFD221" fill-rule="evenodd" d="M0 0v12h16V0H0z" clip-rule="evenodd"/><mask id="BN_svg__b" width="16" height="12" x="0" y="0" maskUnits="userSpaceOnUse"><path fill="#fff" fill-rule="evenodd" d="M0 0v12h16V0H0z" clip-rule="evenodd"/></mask><g mask="url(#BN_svg__b)"><path fill="#313131" d="M-1.534 5.308l1.004-2.29 17.414 7.636-1.004 2.29-17.414-7.636z"/><path fill="#FAF9F9" d="M-1.509 2.785L-.505.495l18.28 8.012-1.004 2.29-18.28-8.012z"/><path fill="#CF1225" fill-rule="evenodd" d="M8 1.444a.5.5 0 00-.5.5v1.814a1.461 1.461 0 00-.634-.158c-.549 0-1.166.768-1.166.768s1.02.028 1.8.802v2.774c-.863-.229-1.234-1.107-1.136-2.903l-1.498-.082c-.157 2.884.909 4.546 3.155 4.546 2.235 0 3.337-1.647 3.262-4.524l-1.5.038c.048 1.835-.37 2.724-1.283 2.936v-2.88c.765-.682 1.7-.707 1.7-.707S9.583 3.6 9.034 3.6c-.198 0-.38.05-.534.113v-1.77a.5.5 0 00-.5-.5zM2.91 5.492a.5.5 0 11.18-.984c.999.183 1.542.878 1.542 1.94v2.026a.5.5 0 11-1 0V6.449c0-.593-.212-.864-.722-.957zm10.614-.582a.5.5 0 01-.402.582c-.51.093-.722.364-.722.957v2.025a.5.5 0 11-1 0V6.449c0-1.063.543-1.758 1.542-1.94a.5.5 0 01.582.401zM4.87 9.22l.826-.563c.463.68 1.211 1.02 2.303 1.02 1.1 0 1.793-.265 2.133-.758l.823.568c-.557.806-1.56 1.19-2.956 1.19-1.404 0-2.467-.484-3.13-1.457z" clip-rule="evenodd"/></g></g></svg>
